X: 37138
T: Singing Stream, The
R: reel
M: 4/4
K: Dmajor
dAAA GAdF|Adef edBc|dAAA g2fe|edef g2fe|
dAAA GAdF|Adef ed(3efg|a3b bagf|1 edef g2fe:|2 edef g2fg||
adde cdef|ggfg egfe|dAAA FAde|fgfd edfg|
adde cdef|ggfg egfe|dAAA FAdf|edfe defg|
adde cdef|ggfg egfe|dAAA FAde|fgfd edfg|
a3b bagf|edef gefe|dFAd GAdF|AdGd g2fe|d8||

